X: 736
T: Junmin hezuo
L: 1/8
M: 2/4
K: F
c c A c [I:setbarnb 1]| 
f f d f | 
d c B c | 
G4 | 
G2D F | 
G2A c | 
G4 | 
f2d f | 
d c B c | 
G2G D | 
C4 | 
G GC2 | 
G GC2 | 
c f d c | 
c dF2 | 
G2F D | 
C2D F | 
C4 |]

@@@ Tune index: 9610
